X: 465
T: Cherokee Shuffle
B: jims roots
B: ralph
M:4/4
L:1/8
R: hornpipe
Q: 1/4=100
K:Amaj
V:1 
xE2F2G2|:"A"A2 AB A2 AB |cBAF E2 EF|A2 AB c2 e2|"F#m" f6 e2|"D"fefg a2 f2 |
"A"efed cBAB|cBAc "E"BAGB|[1 "A"A2 E2 F2 G2:| [2 "A"A2 a2 g2 =g2|| |:"D"fefg a2 f2|
"A"efed cBAe | "D"fefg agab | "A"[c'2e2][c'e][c'e][c'2e2] e2| "D"fefg a2 f2 | "A"efed cBAB | cBAB c2 e2|
[1 "F#m"f6 af | "D"efed "E"cABc |"A"A2 a2 g2 =g2:| [2 "F#m"f2 a4 f2 | "D"efed "E"cABc |"A"A6 z2||
% abcbook-tune_id 6298c2453be0951f7f78b3ef


% abcbook-boost 0
% abcbook-tablature 
% abcbook-transpose 
% abcbook-lastupdated 1665486340389
% abcbook-soundfonts 
% abcbook-repeats 1


